static/img/kroki/a72519a10dbb42840abf6e5b056bbf28.svg

<?xml version="1.0" encoding="us-ascii" standalone="no"?><svg xmlns="http://www.w3.org/2000/svg" xmlns:xlink="http://www.w3.org/1999/xlink" contentStyleType="text/css" height="152px" preserveAspectRatio="none" style="width:305px;height:152px;" version="1.1" viewBox="0 0 305 152" width="305px" zoomAndPan="magnify"><defs/><g><!--class gcp_interconnect_attachment--><g id="elem_gcp_interconnect_attachment"><rect codeLine="22" fill="#3D176E" height="39.7891" id="gcp_interconnect_attachment" rx="2.5" ry="2.5" style="stroke:#000D19;stroke-width:0.5;" width="291" x="7" y="106.79"/><ellipse cx="22" cy="126.6845" fill="#ADD1B2" rx="11" ry="11" style="stroke:#181818;stroke-width:1.0;"/><path d="M24.9688,132.3252 Q24.3906,132.622 23.75,132.7627 Q23.1094,132.9189 22.4063,132.9189 Q19.9063,132.9189 18.5781,131.2783 Q17.2656,129.622 17.2656,126.497 Q17.2656,123.372 18.5781,121.7158 Q19.9063,120.0595 22.4063,120.0595 Q23.1094,120.0595 23.75,120.2158 Q24.4063,120.372 24.9688,120.6689 L24.9688,123.3877 Q24.3438,122.8095 23.75,122.5439 Q23.1563,122.2627 22.5313,122.2627 Q21.1875,122.2627 20.5,123.3408 Q19.8125,124.4033 19.8125,126.497 Q19.8125,128.5908 20.5,129.6689 Q21.1875,130.7314 22.5313,130.7314 Q23.1563,130.7314 23.75,130.4658 Q24.3438,130.1845 24.9688,129.6064 L24.9688,132.3252 Z " fill="#000000"/><text fill="#D9B8FF" font-family="Helvetica" font-size="17" lengthAdjust="spacing" textLength="249" x="41" y="132.5698">gcp_interconnect_attachment</text></g><!--class gcp_vpn_gateway--><g id="elem_gcp_vpn_gateway"><rect codeLine="24" fill="#3D176E" height="39.7891" id="gcp_vpn_gateway" rx="2.5" ry="2.5" style="stroke:#000D19;stroke-width:0.5;" width="191" x="57" y="7"/><ellipse cx="72" cy="26.8945" fill="#ADD1B2" rx="11" ry="11" style="stroke:#181818;stroke-width:1.0;"/><path d="M74.9688,32.5352 Q74.3906,32.832 73.75,32.9727 Q73.1094,33.1289 72.4063,33.1289 Q69.9063,33.1289 68.5781,31.4883 Q67.2656,29.832 67.2656,26.707 Q67.2656,23.582 68.5781,21.9258 Q69.9063,20.2695 72.4063,20.2695 Q73.1094,20.2695 73.75,20.4258 Q74.4063,20.582 74.9688,20.8789 L74.9688,23.5977 Q74.3438,23.0195 73.75,22.7539 Q73.1563,22.4727 72.5313,22.4727 Q71.1875,22.4727 70.5,23.5508 Q69.8125,24.6133 69.8125,26.707 Q69.8125,28.8008 70.5,29.8789 Q71.1875,30.9414 72.5313,30.9414 Q73.1563,30.9414 73.75,30.6758 Q74.3438,30.3945 74.9688,29.8164 L74.9688,32.5352 Z " fill="#000000"/><text fill="#D9B8FF" font-family="Helvetica" font-size="17" lengthAdjust="spacing" textLength="149" x="91" y="32.7798">gcp_vpn_gateway</text></g><!--link gcp_vpn_gateway to gcp_interconnect_attachment--><g id="link_gcp_vpn_gateway_gcp_interconnect_attachment"><path codeLine="26" d="M152.5,47.22 C152.5,62.49 152.5,83.92 152.5,100.53 " fill="none" id="gcp_vpn_gateway-to-gcp_interconnect_attachment" style="stroke:#1A83AF;stroke-width:2.0;"/><polygon fill="#1A83AF" points="152.5,105.41,156.5,96.41,152.5,100.41,148.5,96.41,152.5,105.41" style="stroke:#1A83AF;stroke-width:2.0;"/></g><!--SRC=[XT9DQyCm30RWUt-58UT2ixArlGooGDakPQoxZL5KMqvC4Zl8QaCszj_NZsruIJ-kqeFqoZWt2WLMDRUYmcgDv0U-CBO6WaeaHAv9NUb8H5g37a-wpRcpV1Kie4BnYEKMsKZeYjVSoCAYz-8cQ3s0B39o6wkEuvd0-bqBBGSgBS7xX9dCUiCOX56pzLJhhkmEZSOgdjnXZpbII3zaD1gfUDObLrTTlFjFBCq7YZXyj8LZxCNihJYeYodt8WZPE_ItVpRZCoXbR2PkWzhBCHDPf7_rPGxADNkjeVJX6iz8wBYjCUrTXREfqfEJ-EaSblkN4vciLyRkj7JMekGLC8FCgztd49-3hq1jQxlAWB61zj3frePlKPnCnydyVNX_QUmt]--></g></svg>

<svg xmlns="http://www.w3.org/2000/svg" width="305" height="152" preserveAspectRatio="none" style="width:305px;height:152px"><rect width="291" height="39.789" x="7" y="106.79" fill="#3D176E" rx="2.5" ry="2.5" style="stroke:#000d19;stroke-width:.5"/><circle cx="22" cy="126.684" r="11" fill="#ADD1B2" style="stroke:#181818;stroke-width:1"/><path d="M24.969 132.325q-.578.297-1.219.438-.64.156-1.344.156-2.5 0-3.828-1.64-1.312-1.657-1.312-4.782t1.312-4.781q1.328-1.656 3.828-1.656.703 0 1.344.156.656.156 1.219.453v2.719q-.625-.579-1.219-.844-.594-.281-1.219-.281-1.343 0-2.031 1.078-.688 1.062-.688 3.156 0 2.094.688 3.172.688 1.062 2.031 1.062.625 0 1.219-.265.594-.281 1.219-.86v2.72Z"/><text x="41" y="132.57" fill="#D9B8FF" font-family="Helvetica" font-size="17" textLength="249">gcp_interconnect_attachment</text><rect width="191" height="39.789" x="57" y="7" fill="#3D176E" rx="2.5" ry="2.5" style="stroke:#000d19;stroke-width:.5"/><circle cx="72" cy="26.895" r="11" fill="#ADD1B2" style="stroke:#181818;stroke-width:1"/><path d="M74.969 32.535q-.578.297-1.219.438-.64.156-1.344.156-2.5 0-3.828-1.64-1.312-1.657-1.312-4.782t1.312-4.781q1.328-1.656 3.828-1.656.703 0 1.344.156.656.156 1.219.453v2.719q-.625-.578-1.219-.844-.594-.281-1.219-.281-1.344 0-2.031 1.078-.688 1.062-.688 3.156 0 2.094.688 3.172.688 1.062 2.031 1.062.625 0 1.219-.265.594-.281 1.219-.86v2.72Z"/><text x="91" y="32.78" fill="#D9B8FF" font-family="Helvetica" font-size="17" textLength="149">gcp_vpn_gateway</text><path fill="none" d="M152.5 47.22v53.31" style="stroke:#1a83af;stroke-width:2"/><path fill="#1A83AF" d="m152.5 105.41 4-9-4 4-4-4 4 9z" style="stroke:#1a83af;stroke-width:2"/></svg>
